src/assets/images/icons/alert-line.svg

<svg width="24" height="24" viewBox="0 0 24 24" fill="none" xmlns="http://www.w3.org/2000/svg">
<g clip-path="url(#clip0_58_16716)">
<path d="M12.866 2.99996L22.392 19.5C22.4797 19.652 22.5259 19.8244 22.5259 20C22.5259 20.1755 22.4797 20.3479 22.392 20.4999C22.3042 20.652 22.178 20.7782 22.026 20.866C21.8739 20.9537 21.7015 21 21.526 21H2.47397C2.29844 21 2.126 20.9537 1.97398 20.866C1.82197 20.7782 1.69573 20.652 1.60797 20.4999C1.5202 20.3479 1.474 20.1755 1.474 20C1.474 19.8244 1.52021 19.652 1.60797 19.5L11.134 2.99996C11.2217 2.84795 11.348 2.72172 11.5 2.63396C11.652 2.5462 11.8244 2.5 12 2.5C12.1755 2.5 12.3479 2.5462 12.5 2.63396C12.652 2.72172 12.7782 2.84795 12.866 2.99996ZM4.20597 19H19.794L12 5.49996L4.20597 19ZM11 16H13V18H11V16ZM11 8.99996H13V14H11V8.99996Z" fill="#181D27"/>
</g>
<defs>
<clipPath id="clip0_58_16716">
<rect width="24" height="24" fill="white"/>
</clipPath>
</defs>
</svg>

<svg xmlns="http://www.w3.org/2000/svg" width="24" height="24" fill="none" viewBox="0 0 24 24"><g clip-path="url(#a)"><path fill="#181d27" d="m12.866 3 9.526 16.5a1 1 0 0 1-.866 1.5H2.474a1 1 0 0 1-.866-1.5L11.134 3a1 1 0 0 1 1.732 0m-8.66 16h15.588L12 5.5zM11 16h2v2h-2zm0-7h2v5h-2z"/></g><defs><clipPath id="a"><path fill="#fff" d="M0 0h24v24H0z"/></clipPath></defs></svg>
